assets/img/braze_icons/letter-spacing-02.svg

<svg fill="none" height="24" viewBox="0 0 24 24" width="24" xmlns="http://www.w3.org/2000/svg"><g fill="#801ed7"><path d="m6 3c0-.55228.44772-1 1-1h10c.5523 0 1 .44772 1 1s-.4477 1-1 1h-4v10c0 .5523-.4477 1-1 1s-1-.4477-1-1v-10h-4c-.55228 0-1-.44772-1-1z"/><path d="m18.2929 14.2929c.3905-.3905 1.0237-.3905 1.4142 0l3.2929 3.7071c0 .2685-.1058.5122-.278.6919l-.0149.0152-3 3c-.3905.3905-1.0237.3905-1.4142 0s-.3905-1.0237 0-1.4142l1.2929-1.2929h-15.17159l1.2929 1.2929c.39052.3905.39052 1.0237 0 1.4142-.39053.3905-1.02369.3905-1.41422 0l-3-3c-.09587-.0959-.16821-.2064-.21701-.3243-.04889-.1179-.07588-.2472-.07588-.3828s.02699-.2649.07588-.3828c.0488-.1179.12114-.2284.21701-.3243l3-3c.39053-.3905 1.02369-.3905 1.41422 0 .39052.3905.39052 1.0237 0 1.4142l-1.2929 1.2929h15.17159l-1.2929-1.2929c-.3905-.3905-.3905-1.0237 0-1.4142z"/></g></svg>

<svg width="24" height="24" viewBox="0 0 24 24" fill="none" xmlns="http://www.w3.org/2000/svg">
<path d="M6 3C6 2.44772 6.44772 2 7 2H17C17.5523 2 18 2.44772 18 3C18 3.55228 17.5523 4 17 4H13V14C13 14.5523 12.5523 15 12 15C11.4477 15 11 14.5523 11 14V4H7C6.44772 4 6 3.55228 6 3Z" fill="#801ED7"/>
<path d="M18.2929 14.2929C18.6834 13.9024 19.3166 13.9024 19.7071 14.2929L23 18C23 18.2685 22.8942 18.5122 22.722 18.6919L22.7071 18.7071L19.7071 21.7071C19.3166 22.0976 18.6834 22.0976 18.2929 21.7071C17.9024 21.3166 17.9024 20.6834 18.2929 20.2929L19.5858 19H4.41421L5.70711 20.2929C6.09763 20.6834 6.09763 21.3166 5.70711 21.7071C5.31658 22.0976 4.68342 22.0976 4.29289 21.7071L1.29289 18.7071C1.19702 18.6112 1.12468 18.5007 1.07588 18.3828C1.02699 18.2649 1 18.1356 1 18C1 17.8644 1.02699 17.7351 1.07588 17.6172C1.12468 17.4993 1.19702 17.3888 1.29289 17.2929L4.29289 14.2929C4.68342 13.9024 5.31658 13.9024 5.70711 14.2929C6.09763 14.6834 6.09763 15.3166 5.70711 15.7071L4.41421 17H19.5858L18.2929 15.7071C17.9024 15.3166 17.9024 14.6834 18.2929 14.2929Z" fill="#801ED7"/>
</svg>
